!!!OTL: 816b. Gang zur Liebsten aus Fenster.
!!!ODT: 1890
!!!ARE: Europa, Mitteleuropa, Deutschland, Hessen, Wetterau
!!!SCT: E0816D
!!!TXL: @@DE
!!!YEM: Copyright 1995, estate of Helmut Schaffrath.
**kern	**text
*ICvox	*
*M4/4	*
*met(c)	*
*k[f#]	*
*G:	*
!LO:TX:a:t=Etwas langsam.	!
!LO:TX:a:t=Aus der Wetterau 1890.	!
{4d	Jetʒt
=1	=1
4.g	bricht
8f#	die
4g	fin-
8a/L	-ſtre
8ccJ	.
=2	=2
4.b/	Nacht
8a	he-
4g}	-rein,
{4b	und
=3	=3
4.a	al-
8a	-le
4a	Men-
8bL	-ſchen
8ddJ	.
=4	=4
4cc	ſchla-
4b	-fen
4a}	ein.
{8gL	Ei,
8bJ	und
=5	=5
4.a	al-
8a	-le
4a	Men-
4a	-ſchen
=6	=6
4a	gehn
(8bL	ʒur
8ddJ)	.
(4cc	Ruh,
4ee;)}	.
=7	=7
{4.dd	ſchlie-
8cc	-ßen
8bL	ih-
8ddJ	.
4b	-re
=8	=8
8aL	Aeug-
8ccJ	.
8bL	-lein
8aJ	.
4g}	ʒu.
{8gL	Ei,
8bJ	und
=9	=9
4.a	al-
8a	-le
4a	Men-
4a	-ſchen
=10	=10
4a	gehn
(8bL	ʒur
8ddJ)	.
(4cc	Ruh,
4ee;)}	.
=11	=11
{4.dd	ſchlie-
8cc	-ßen
8bL	ih-
8ddJ	.
4b	-re
=12	=12
8aL	Aeug-
8ccJ	.
8bL	-lein
8aJ	.
4g}	ʒu.
==	==
!!!AGN: Kilt - Lied
!!!ONB: ESAC (Essen Associative Code) Database: ERK2
!!!AMT: simple quadruple
!!!AIN: vox
!!!EED: Helmut Schaffrath
!!!EEV: 1.0
!!!GTL: Tagelieder und Kiltgesaenge
!!!URL-scan: https://rosdok.uni-rostock.de/mcrviewer/recordIdentifier/rosdok_ppn745177662/iview2/phys_0626.iview2?x=193.8995864193107&y=2162.6587386494502&scale=0.7029437510502773&rotation=0&layout=singlePageLayout
!!!ENC: Anna Maria Matuszewska
!!!EEV: 2024/12/18
*-	*-
